app/img/icons/russia.svg

<svg width="50" height="50" viewBox="0 0 50 50" fill="none" xmlns="http://www.w3.org/2000/svg">
<g clip-path="url(#clip0)">
<path d="M45.0426 33.2801H43.0499C43.1026 32.9972 43.2215 32.6563 43.464 32.2804C44.2106 31.1233 44.3703 30.1015 44.5111 29.1999C44.5999 28.6318 44.6838 28.0951 44.9119 27.476C45.114 26.9275 45.5028 26.4821 45.9008 26.1426L47.2784 29.5382L50 28.434L45.075 16.2557L43.8785 16.4978C43.7419 16.5254 40.5101 17.2178 38.4892 20.9599C37.0143 23.6913 33.6935 25.812 29.6534 26.6618L28.8482 23.7075L27.4122 24.1278C25.0404 24.822 23.6617 25.4473 21.5396 26.7013C21.5281 26.7162 21.5163 26.7318 21.5048 26.7467L15.9263 34.2378H11.3475C11.3475 34.2378 8.78198 30.7406 7.31615 28.7895C6.49904 29.101 5.78081 29.5538 5.155 30.1513C3.57178 31.6629 2.92727 34.1641 3.43638 36.4522L1.52588e-05 38.7375L4.06307 46.0855H6.03399L7.5568 44.3718C9.09371 42.6423 11.3021 41.6505 13.6156 41.6505C15.5673 41.6505 17.457 42.3579 18.937 43.6425C20.6213 45.1045 22.259 45.9072 23.7992 46.0783C25.5677 46.2749 26.634 45.8422 28.0617 45.3843C29.1436 45.0374 29.9703 44.6811 31.3884 44.865C31.9876 44.9426 32.533 44.9797 33.0327 44.9797C35.8353 44.9796 37.1787 43.8108 38.2371 42.0741C38.6027 41.4742 39.1135 41.1292 39.5998 40.976C40.8734 40.5746 42.0438 42.0682 42.0438 42.0682L44.8187 40.7043C45.3124 42.0631 45.5633 43.4843 45.5633 44.9351H48.5004C48.5004 42.975 48.1313 41.0583 47.4036 39.2384L45.0426 33.2801Z" fill="#0033A1"/>
<path d="M12.8359 31.3005H14.4381L19.1706 24.9639C21.1683 22.3504 23.9042 18.771 23.9042 14.1402C23.9042 8.47882 19.2984 3.87298 13.637 3.87298C7.97568 3.87298 3.36975 8.47882 3.36975 14.1402C3.36975 18.771 6.1056 22.3504 8.10335 24.9639L12.8359 31.3005ZM8.74815 14.1402C8.74815 11.4445 10.9413 9.25129 13.637 9.25129C16.3327 9.25129 18.5259 11.4445 18.5259 14.1402C18.5259 16.8359 16.3327 19.029 13.637 19.029C10.9413 19.029 8.74815 16.836 8.74815 14.1402Z" fill="#BE9230"/>
<path d="M15.4464 14.8905C15.8593 13.8945 15.3865 12.7524 14.3905 12.3396C13.3945 11.9267 12.2524 12.3995 11.8396 13.3955C11.4268 14.3914 11.8995 15.5335 12.8955 15.9464C13.8915 16.3592 15.0336 15.8865 15.4464 14.8905Z" fill="#BE9230"/>
</g>
<defs>
<clipPath id="clip0">
<rect width="50" height="50" fill="white"/>
</clipPath>
</defs>
</svg>

<svg width="50" height="50" fill="none" xmlns="http://www.w3.org/2000/svg"><g clip-path="url(#clip0)"><path d="M45.043 33.28H43.05c.053-.283.172-.624.414-1 .747-1.157.906-2.178 1.047-3.08.089-.568.173-1.105.4-1.724.203-.549.592-.994.99-1.333l1.377 3.395L50 28.434l-4.925-12.178-1.197.242c-.136.027-3.368.72-5.389 4.462-1.475 2.731-4.795 4.852-8.836 5.702l-.805-2.954-1.436.42c-2.372.694-3.75 1.32-5.872 2.573l-.035.046-5.579 7.49h-4.579s-2.565-3.496-4.03-5.448a6.388 6.388 0 00-2.162 1.362c-1.583 1.512-2.228 4.013-1.719 6.301L0 38.737l4.063 7.349h1.971l1.523-1.714a8.112 8.112 0 016.059-2.721 8.12 8.12 0 015.321 1.991c1.684 1.462 3.322 2.265 4.862 2.436 1.769.197 2.835-.236 4.263-.694 1.082-.347 1.908-.703 3.326-.519.6.078 1.145.115 1.645.115 2.802 0 4.146-1.17 5.204-2.906.366-.6.877-.945 1.363-1.098 1.273-.401 2.444 1.092 2.444 1.092l2.775-1.364c.493 1.36.744 2.78.744 4.231H48.5c0-1.96-.369-3.877-1.096-5.697l-2.361-5.958z" fill="#0033A1"/><path d="M12.836 31.3h1.602l4.733-6.336c1.997-2.614 4.733-6.193 4.733-10.824 0-5.661-4.606-10.267-10.267-10.267S3.37 8.479 3.37 14.14c0 4.631 2.736 8.21 4.733 10.824l4.733 6.337zM8.748 14.14a4.894 4.894 0 014.889-4.889 4.895 4.895 0 014.889 4.89 4.894 4.894 0 01-4.889 4.888 4.894 4.894 0 01-4.889-4.889z" fill="#BE9230"/><path d="M15.446 14.89a1.952 1.952 0 10-3.606-1.495 1.952 1.952 0 003.606 1.495z" fill="#BE9230"/></g><defs><clipPath id="clip0"><path fill="#fff" d="M0 0h50v50H0z"/></clipPath></defs></svg>
